svg/azure-enterprise-app.svg

<?xml version="1.0" encoding="UTF-8"?>
<svg xmlns="http://www.w3.org/2000/svg" xmlns:xlink="http://www.w3.org/1999/xlink" width="32" height="32" viewBox="0 0 32 32">
<defs>
<filter id="filter-remove-color" x="0%" y="0%" width="100%" height="100%">
<feColorMatrix color-interpolation-filters="sRGB" values="0 0 0 0 1 0 0 0 0 1 0 0 0 0 1 0 0 0 1 0" />
</filter>
<linearGradient id="linear-pattern-0" gradientUnits="userSpaceOnUse" x1="-6784.850098" y1="1118.780029" x2="-6784.850098" y2="1089.97998" gradientTransform="matrix(0.88889, 0, 0, -0.88889, 6045.172852, 995.538025)">
<stop offset="0" stop-color="rgb(36.862745%, 62.745098%, 93.72549%)" stop-opacity="1"/>
<stop offset="0.18" stop-color="rgb(34.509804%, 61.960784%, 92.941176%)" stop-opacity="1"/>
<stop offset="0.41" stop-color="rgb(28.235294%, 59.215686%, 91.372549%)" stop-opacity="1"/>
<stop offset="0.66" stop-color="rgb(18.039216%, 54.901961%, 88.235294%)" stop-opacity="1"/>
<stop offset="0.94" stop-color="rgb(3.921569%, 48.627451%, 84.313725%)" stop-opacity="1"/>
<stop offset="1" stop-color="rgb(0%, 47.058824%, 83.137255%)" stop-opacity="1"/>
</linearGradient>
<image id="source-17" x="0" y="0" width="32" height="32" xlink:href="data:image/png;base64,iVBORw0KGgoAAAANSUhEUgAAACAAAAAgCAYAAABzenr0AAAABmJLR0QA/wD/AP+gvaeTAAAALUlEQVRYhe3NIQ4AIBADwYP/P5kEDOKCrmMmWdtWAQAA/G4Et2brtW8r+AcZB+JDAwKCKsEXAAAAAElFTkSuQmCC"/>
<mask id="mask-0">
<g filter="url(#filter-remove-color)">
<use xlink:href="#source-17"/>
</g>
</mask>
<linearGradient id="linear-pattern-1" gradientUnits="userSpaceOnUse" x1="-1.47" y1="14.91" x2="17.16" y2="14.8" gradientTransform="matrix(1.777778, 0.00266842, -0.00266842, 1.777778, 0, 0)">
<stop offset="0" stop-color="rgb(26.666667%, 61.176471%, 86.666667%)" stop-opacity="0.149"/>
<stop offset="0.16" stop-color="rgb(15.686275%, 43.921569%, 67.058824%)" stop-opacity="0"/>
<stop offset="0.18" stop-color="rgb(14.117647%, 41.176471%, 63.921569%)" stop-opacity="0.059"/>
<stop offset="0.23" stop-color="rgb(10.196078%, 34.901961%, 56.862745%)" stop-opacity="0.188"/>
<stop offset="0.28" stop-color="rgb(7.843137%, 30.980392%, 52.54902%)" stop-opacity="0.271"/>
<stop offset="0.34" stop-color="rgb(7.058824%, 29.803922%, 50.980392%)" stop-opacity="0.302"/>
<stop offset="0.76" stop-color="rgb(0%, 15.686275%, 31.764706%)" stop-opacity="0.349"/>
<stop offset="0.9" stop-color="rgb(18.431373%, 47.843137%, 71.372549%)" stop-opacity="0"/>
<stop offset="1" stop-color="rgb(26.666667%, 61.176471%, 86.666667%)" stop-opacity="0"/>
</linearGradient>
<clipPath id="clip-0">
<rect x="0" y="0" width="32" height="32"/>
</clipPath>
<g id="source-16" clip-path="url(#clip-0)">
<path fill-rule="nonzero" fill="url(#linear-pattern-1)" d="M 18.949219 26.667969 L 26.328125 26.667969 C 26.171875 26.53125 26.0625 26.351562 26.007812 26.152344 L 18.898438 26.152344 Z M 18.949219 26.667969 "/>
</g>
<clipPath id="clip-1">
<rect x="0" y="0" width="32" height="32"/>
</clipPath>
<g id="source-19" clip-path="url(#clip-1)">
<g mask="url(#mask-0)">
<use xlink:href="#source-16"/>
</g>
</g>
<clipPath id="clip-2">
<path clip-rule="nonzero" d="M 17.875 16.125 L 31 16.125 L 31 30.5 L 17.875 30.5 Z M 17.875 16.125 "/>
</clipPath>
<clipPath id="clip-3">
<path clip-rule="nonzero" d="M 23.574219 16.195312 C 19.492188 16.195312 16.179688 19.507812 16.179688 23.589844 C 16.152344 26.25 17.554688 28.722656 19.855469 30.0625 C 22.15625 31.398438 24.996094 31.398438 27.296875 30.0625 C 29.597656 28.722656 30.996094 26.25 30.96875 23.589844 C 30.96875 19.507812 27.65625 16.195312 23.574219 16.195312 "/>
</clipPath>
</defs>
<path fill-rule="nonzero" fill="url(#linear-pattern-0)" d="M 9.972656 18.933594 L 17.671875 18.933594 L 17.671875 26.667969 L 9.972656 26.667969 Z M 1.085938 8.691406 L 8.691406 8.691406 L 8.691406 1.007812 L 2.078125 1.007812 C 1.488281 1.011719 1.011719 1.488281 1.011719 2.078125 Z M 2.078125 26.667969 L 8.691406 26.667969 L 8.691406 18.933594 L 1.011719 18.933594 L 1.011719 25.546875 C 1 25.839844 1.105469 26.125 1.304688 26.335938 C 1.507812 26.546875 1.789062 26.667969 2.078125 26.667969 M 1.011719 17.777344 L 8.691406 17.777344 L 8.691406 9.972656 L 1.011719 9.972656 Z M 18.949219 26.667969 L 25.5625 26.667969 C 26.152344 26.667969 26.632812 26.1875 26.632812 25.601562 L 26.632812 18.933594 L 18.949219 18.933594 Z M 10.0625 17.777344 L 17.671875 17.777344 L 17.671875 9.972656 L 9.972656 9.972656 Z M 19.039062 17.777344 L 26.667969 17.777344 L 26.667969 9.972656 L 18.949219 9.972656 Z M 19.039062 1.136719 L 19.039062 8.691406 L 26.667969 8.691406 L 26.667969 2.078125 C 26.664062 1.492188 26.1875 1.015625 25.601562 1.011719 Z M 10.152344 8.816406 L 17.671875 8.816406 L 17.671875 1.011719 L 9.972656 1.011719 Z M 10.152344 8.816406 "/>
<use xlink:href="#source-19"/>
<path fill-rule="nonzero" fill="rgb(19.607843%, 74.509804%, 86.666667%)" fill-opacity="1" d="M 23.574219 16.195312 C 19.492188 16.195312 16.179688 19.507812 16.179688 23.589844 C 16.152344 26.25 17.554688 28.722656 19.855469 30.0625 C 22.15625 31.398438 24.996094 31.398438 27.296875 30.0625 C 29.597656 28.722656 30.996094 26.25 30.96875 23.589844 C 30.96875 19.507812 27.65625 16.195312 23.574219 16.195312 "/>
<g clip-path="url(#clip-2)">
<g clip-path="url(#clip-3)">
<path fill-rule="nonzero" fill="rgb(70.588235%, 92.54902%, 21.176471%)" fill-opacity="1" d="M 30.328125 24.65625 C 29.957031 24.851562 29.421875 24.746094 29.171875 24.941406 C 28.691406 25.214844 28.304688 25.625 28.054688 26.117188 C 28.054688 26.222656 28.054688 26.382812 27.929688 26.4375 C 27.429688 26.773438 26.933594 27.128906 27.394531 27.875 C 26.863281 27.875 27.039062 27.394531 26.792969 27.253906 C 26.417969 27.089844 25.988281 27.101562 25.621094 27.289062 C 25.257812 27.472656 24.996094 27.8125 24.90625 28.214844 C 24.84375 28.472656 24.960938 28.738281 25.191406 28.871094 C 25.304688 28.933594 25.4375 28.945312 25.558594 28.902344 C 25.679688 28.859375 25.777344 28.773438 25.832031 28.65625 C 25.875 28.578125 25.949219 28.519531 26.039062 28.5 C 26.125 28.480469 26.21875 28.5 26.292969 28.550781 C 26.292969 28.835938 25.796875 29.351562 26.613281 29.367188 C 26.828125 29.367188 26.773438 29.617188 26.71875 29.777344 C 26.667969 29.9375 26.828125 30.203125 27.058594 30.3125 C 27.289062 30.417969 27.058594 30.3125 27.058594 30.398438 C 26.398438 30.398438 26.257812 29.601562 25.617188 29.511719 C 25.359375 29.441406 25.101562 29.359375 24.851562 29.261719 C 24.375 29.101562 23.820312 29.011719 23.714844 28.300781 C 23.628906 27.9375 23.398438 27.621094 23.074219 27.429688 C 22.863281 27.289062 22.738281 27.023438 22.523438 26.863281 C 22.441406 26.625 22.308594 26.40625 22.132812 26.222656 C 21.800781 25.78125 21.707031 25.203125 21.882812 24.675781 C 22.199219 23.691406 22.136719 22.628906 21.707031 21.6875 C 21.527344 21.121094 21.492188 20.535156 20.851562 20.160156 C 20.214844 19.785156 20.320312 20.375 20.070312 20.25 C 19.820312 20.125 19.679688 20.480469 19.609375 20.515625 C 19.09375 20.65625 18.648438 21.101562 17.992188 21.03125 C 18.238281 20.90625 18.4375 20.835938 18.613281 20.730469 C 18.792969 20.621094 19.128906 20.480469 18.738281 20.054688 C 18.347656 19.625 18.488281 19.003906 19.539062 18.578125 C 19.449219 18.328125 18.808594 18.382812 19.09375 17.921875 C 19.378906 17.457031 19.589844 17.6875 19.859375 17.921875 C 20.035156 17.582031 19.644531 17.15625 19.945312 16.960938 C 20.347656 16.730469 20.777344 16.558594 21.226562 16.445312 C 21.332031 16.390625 21.457031 16.378906 21.570312 16.414062 C 21.683594 16.453125 21.777344 16.535156 21.832031 16.640625 C 22.152344 17.136719 22.792969 17.226562 23.109375 17.722656 C 23.199219 17.882812 23.378906 17.722656 23.503906 17.722656 C 24.230469 17.476562 24.710938 17.9375 25.28125 18.3125 C 25.847656 18.683594 25.761719 18.914062 26.222656 18.863281 C 26.34375 18.835938 26.472656 18.835938 26.59375 18.863281 C 26.878906 18.988281 27.148438 19.058594 27.359375 18.753906 C 27.582031 18.730469 27.769531 18.566406 27.820312 18.347656 C 27.929688 18.1875 27.980469 17.957031 28.25 18.0625 C 28.121094 18.566406 28.191406 19.101562 28.445312 19.554688 C 28.675781 19.378906 28.90625 19.269531 28.640625 18.863281 C 28.523438 18.679688 28.507812 18.445312 28.597656 18.246094 C 28.6875 18.046875 28.871094 17.902344 29.085938 17.867188 C 29.507812 17.726562 29.972656 17.894531 30.203125 18.277344 C 30.542969 18.878906 30.648438 19.574219 31.039062 20.054688 C 31.164062 20.214844 31.039062 20.285156 31.039062 20.410156 C 31.039062 20.535156 30.71875 20.410156 30.542969 20.300781 L 30.667969 21.066406 C 30.136719 21.296875 29.519531 21.109375 29.207031 20.621094 C 29.207031 20.410156 29.207031 20.320312 29.421875 20.214844 C 29.636719 20.105469 29.761719 20.019531 29.761719 19.785156 C 29.785156 19.640625 29.710938 19.496094 29.582031 19.429688 C 29.441406 19.429688 29.351562 19.429688 29.316406 19.589844 C 29.28125 19.75 28.730469 20.035156 28.816406 20.535156 C 28.90625 21.03125 28.480469 20.925781 28.230469 20.78125 C 27.644531 20.480469 27.429688 21.011719 27.183594 21.296875 C 26.933594 21.582031 27.183594 21.902344 27.464844 22.117188 C 27.75 22.328125 28.019531 22.488281 28.125 22.828125 C 28.421875 22.5625 28.605469 22.191406 28.640625 21.796875 C 28.640625 21.476562 28.765625 21.03125 29.207031 20.976562 C 29.550781 20.949219 29.871094 21.152344 29.992188 21.476562 C 30.078125 21.671875 30.222656 21.6875 30.398438 21.707031 C 30.800781 22.574219 31.125 23.480469 31.359375 24.410156 L 30.703125 24.320312 C 30.703125 23.804688 30.257812 24.035156 30.007812 23.929688 C 29.9375 24.25 30.347656 24.335938 30.328125 24.65625 M 27.769531 18.257812 C 27.539062 18.042969 27.289062 17.847656 27.664062 17.546875 C 28.035156 17.246094 28.019531 17.03125 28.195312 17.546875 C 28.238281 17.855469 28.0625 18.148438 27.769531 18.257812 M 28.320312 17.546875 C 28.515625 17.351562 28.765625 17.367188 28.800781 17.546875 C 28.835938 17.722656 28.570312 17.882812 28.335938 17.957031 C 28.105469 18.027344 28.179688 17.777344 28.320312 17.546875 M 26.949219 15.894531 L 26.328125 16 C 26.328125 15.554688 26.773438 15.519531 27.074219 15.589844 C 27.378906 15.664062 27.039062 15.804688 26.949219 15.894531 "/>
</g>
</g>
</svg>

<svg role="img" viewBox="0 0 32 32" xmlns="http://www.w3.org/2000/svg"><defs><clipPath id="azure-enterprise-app_svg__a"><path d="M0 0h32v32H0z"/></clipPath><clipPath id="azure-enterprise-app_svg__c"><path d="M0 0h32v32H0z"/></clipPath><clipPath id="azure-enterprise-app_svg__j"><path d="M17.875 16.125H31V30.5H17.875Zm0 0"/></clipPath><clipPath id="azure-enterprise-app_svg__k"><path d="M23.574 16.195a7.397 7.397 0 0 0-7.394 7.395 7.4 7.4 0 0 0 3.675 6.473 7.41 7.41 0 0 0 7.442 0 7.4 7.4 0 0 0 3.672-6.473 7.397 7.397 0 0 0-7.395-7.395"/></clipPath><linearGradient gradientTransform="matrix(.88889 0 0 -.88889 6045.173 995.538)" gradientUnits="userSpaceOnUse" id="azure-enterprise-app_svg__h" x1="-6784.85" x2="-6784.85" y1="1118.78" y2="1089.98"><stop offset="0" stop-color="rgb(36.862746%, 62.7451%, 93.725491%)"/><stop offset=".18" stop-color="rgb(34.509805%, 61.960787%, 92.941177%)"/><stop offset=".41" stop-color="rgb(28.235295%, 59.215689%, 91.37255%)"/><stop offset=".66" stop-color="rgb(18.039216%, 54.901963%, 88.235295%)"/><stop offset=".94" stop-color="rgb(3.921569%, 48.627451%, 84.313726%)"/><stop offset="1" stop-color="rgb(0%, 47.058824%, 83.137256%)"/></linearGradient><linearGradient gradientTransform="rotate(.086)scale(1.77778)" gradientUnits="userSpaceOnUse" id="azure-enterprise-app_svg__b" x1="-1.47" x2="17.16" y1="14.91" y2="14.8"><stop offset="0" stop-color="rgb(26.666668%, 61.176473%, 86.666667%)" stop-opacity=".149"/><stop offset=".16" stop-color="rgb(15.686275%, 43.921569%, 67.058825%)" stop-opacity="0"/><stop offset=".18" stop-color="rgb(14.117648%, 41.176471%, 63.921571%)" stop-opacity=".059"/><stop offset=".23" stop-color="rgb(10.196079%, 34.901962%, 56.862748%)" stop-opacity=".188"/><stop offset=".28" stop-color="rgb(7.843138%, 30.980393%, 52.549022%)" stop-opacity=".271"/><stop offset=".34" stop-color="rgb(7.058824%, 29.803923%, 50.980395%)" stop-opacity=".302"/><stop offset=".76" stop-color="rgb(0%, 15.686275%, 31.764707%)" stop-opacity=".349"/><stop offset=".9" stop-color="rgb(18.431373%, 47.843137%, 71.372551%)" stop-opacity="0"/><stop offset="1" stop-color="rgb(26.666668%, 61.176473%, 86.666667%)" stop-opacity="0"/></linearGradient><g clip-path="url(#azure-enterprise-app_svg__a)" id="azure-enterprise-app_svg__e"><path d="M18.95 26.668h7.378a1.05 1.05 0 0 1-.32-.516h-7.11Zm0 0" fill="url(#azure-enterprise-app_svg__b)"/></g><g clip-path="url(#azure-enterprise-app_svg__c)" id="azure-enterprise-app_svg__i" mask="url(#azure-enterprise-app_svg__d)"><use href="#azure-enterprise-app_svg__e"/></g><filter height="100%" id="azure-enterprise-app_svg__f" width="100%" x="0%" y="0%"><feColorMatrix color-interpolation-filters="sRGB" values="0 0 0 0 1 0 0 0 0 1 0 0 0 0 1 0 0 0 1 0"/></filter><image height="32" href="data:image/png;base64,iVBORw0KGgoAAAANSUhEUgAAACAAAAAgCAYAAABzenr0AAAABmJLR0QA/wD/AP+gvaeTAAAAM0lEQVRYhe3NsQ2AQBADwQHpRf/FkgINfHgZO+lKNkmSJEnyd8fg1sKFc9NePLgH/5IZH+NLAwI5c27VAAAAAElFTkSuQmCC" id="azure-enterprise-app_svg__g" width="32" x="0" y="0"/><mask id="azure-enterprise-app_svg__d"><g filter="url(#azure-enterprise-app_svg__f)"><use href="#azure-enterprise-app_svg__g"/></g></mask></defs><path d="M9.973 18.934h7.699v7.734h-7.7ZM1.086 8.69H8.69V1.008H2.078a1.07 1.07 0 0 0-1.066 1.07Zm.992 17.977h6.613v-7.734h-7.68v6.613c-.011.293.094.578.294.789.203.21.484.332.773.332m-1.066-8.89h7.68V9.972h-7.68Zm17.937 8.89h6.613c.59 0 1.07-.48 1.07-1.066v-6.668H18.95Zm-8.887-8.89h7.61V9.972h-7.7Zm8.977 0h7.629V9.972h-7.719Zm0-16.641V8.69h7.629V2.078a1.073 1.073 0 0 0-1.066-1.066Zm-8.887 7.68h7.52V1.011h-7.7Zm0 0" fill="url(#azure-enterprise-app_svg__h)"/><use href="#azure-enterprise-app_svg__i"/><path d="M23.574 16.195a7.397 7.397 0 0 0-7.394 7.395 7.4 7.4 0 0 0 3.675 6.473 7.41 7.41 0 0 0 7.442 0 7.4 7.4 0 0 0 3.672-6.473 7.397 7.397 0 0 0-7.395-7.395" fill="rgb(19.607843%, 74.509805%, 86.666667%)"/><g clip-path="url(#azure-enterprise-app_svg__j)"><g clip-path="url(#azure-enterprise-app_svg__k)"><path d="M30.328 24.656c-.371.196-.906.09-1.156.285a2.8 2.8 0 0 0-1.117 1.176c0 .106 0 .266-.125.32-.5.336-.996.692-.535 1.438-.532 0-.356-.48-.602-.621a1.37 1.37 0 0 0-1.887.96.6.6 0 0 0 .285.657.45.45 0 0 0 .368.031.47.47 0 0 0 .273-.246.32.32 0 0 1 .207-.156c.086-.02.18 0 .254.05 0 .286-.496.802.32.817.215 0 .16.25.106.41-.051.16.11.426.34.535.23.106 0 0 0 .086-.66 0-.801-.796-1.442-.886a8 8 0 0 1-.765-.25c-.477-.16-1.032-.25-1.137-.961a1.38 1.38 0 0 0-.64-.871c-.212-.14-.337-.407-.552-.567a1.75 1.75 0 0 0-.39-.64 1.69 1.69 0 0 1-.25-1.547 4.14 4.14 0 0 0-.176-2.988c-.18-.567-.215-1.153-.855-1.528-.637-.375-.532.215-.782.09s-.39.23-.46.266c-.516.14-.962.586-1.618.515.246-.125.445-.195.621-.3.18-.11.516-.25.125-.676-.39-.43-.25-1.051.801-1.477-.09-.25-.73-.195-.445-.656.285-.465.496-.235.765 0 .176-.34-.214-.766.086-.961q.606-.345 1.282-.516a.46.46 0 0 1 .343-.03.46.46 0 0 1 .262.226c.32.496.961.586 1.277 1.082.09.16.27 0 .395 0 .726-.246 1.207.215 1.777.59.567.37.48.601.942.55a.85.85 0 0 1 .37 0c.286.125.555.196.766-.11a.53.53 0 0 0 .461-.405c.11-.16.16-.391.43-.285a2.03 2.03 0 0 0 .195 1.492c.23-.176.461-.285.196-.692a.654.654 0 0 1 .445-.996.95.95 0 0 1 1.117.41c.34.602.445 1.297.836 1.778.125.16 0 .23 0 .355s-.32 0-.496-.11l.125.766a1.176 1.176 0 0 1-1.461-.445c0-.21 0-.3.215-.406.215-.11.34-.195.34-.43a.34.34 0 0 0-.18-.355c-.14 0-.23 0-.266.16-.035.16-.586.445-.5.945.09.496-.336.39-.586.246-.585-.3-.8.23-1.046.516-.25.285 0 .605.28.82.286.211.556.371.661.711.297-.265.48-.637.516-1.031 0-.32.125-.766.566-.82a.77.77 0 0 1 .785.5c.086.195.23.21.406.23.403.867.727 1.773.961 2.703l-.656-.09c0-.515-.445-.285-.695-.39-.07.32.34.406.32.726m-2.558-6.398c-.23-.215-.48-.41-.106-.711.371-.3.356-.516.531 0a.66.66 0 0 1-.425.71m.55-.71c.196-.195.446-.18.48 0 .036.176-.23.336-.464.41-.23.07-.156-.18-.016-.41m-1.37-1.652-.622.105c0-.445.445-.48.746-.41.305.074-.035.215-.125.305" fill="rgb(70.588237%, 92.54902%, 21.176471%)"/></g></g></svg>
